packages/foundations/assets/icons/functional/images/notification/exclamation_mark_circle_14.svg

<svg width="14" height="14" viewBox="0 0 14 14" fill="none" xmlns="http://www.w3.org/2000/svg">
<g clip-path="url(#clip0_187_182)">
<path fill-rule="evenodd" clip-rule="evenodd" d="M7.00002 1.4C10.0844 1.4 12.6 3.91566 12.6 7C12.6 10.0843 10.0844 12.6 7.00002 12.6C3.91568 12.6 1.40002 10.0843 1.40002 7C1.40002 3.91566 3.91568 1.4 7.00002 1.4ZM7.00002 2.8C4.68127 2.8 2.80002 4.68125 2.80002 7C2.80002 9.31875 4.68127 11.2 7.00002 11.2C9.31877 11.2 11.2 9.31875 11.2 7C11.2 4.68125 9.31877 2.8 7.00002 2.8ZM7.00002 8.4C7.39377 8.4 7.70002 8.71105 7.70002 9.08887C7.70002 9.48888 7.39377 9.8 7.00002 9.8C6.62818 9.8 6.30002 9.48888 6.30002 9.08887C6.30002 8.71105 6.62818 8.4 7.00002 8.4ZM7.70002 4.2V7.7H6.30002V4.2H7.70002Z" fill="#1A1C1F"/>
</g>
<defs>
<clipPath id="clip0_187_182">
<rect width="14" height="14" fill="white"/>
</clipPath>
</defs>
</svg>

<svg xmlns="http://www.w3.org/2000/svg" width="14" height="14" fill="none"><g clip-path="url(#a)"><path fill="#1A1C1F" fill-rule="evenodd" d="M7 1.4A5.61 5.61 0 0 1 12.6 7 5.61 5.61 0 0 1 7 12.6 5.61 5.61 0 0 1 1.4 7 5.61 5.61 0 0 1 7 1.4m0 1.4a4.201 4.201 0 0 0 0 8.4 4.201 4.201 0 0 0 0-8.4m0 5.6c.394 0 .7.311.7.689 0 .4-.306.711-.7.711a.71.71 0 0 1-.7-.711c0-.378.328-.689.7-.689m.7-4.2v3.5H6.3V4.2z" clip-rule="evenodd"/></g><defs><clipPath id="a"><path fill="#fff" d="M0 0h14v14H0z"/></clipPath></defs></svg>
